X:1
T:Happy Little Pilgrims, 11.11.11.11
T:Happy Little Pilgrims, 11.11.11.11
T:Hubert Platt Main, 1883
T:Public Domain Courtesy of the Cyber Hymnal™
C:Hubert Platt Main, 1883
Z:Public Domain
Z:Courtesy of the Cyber Hymnal™
%%score ( 1 2 ) ( 3 4 )
L:1/8
Q:1/4=95
M:2/4
K:G
V:1 treble 
V:2 treble 
V:3 bass 
V:4 bass 
V:1
 [DB][B,G] [B,G][B,E] | [CE]2 [CD]2 | [DG][DG] [^CF][CG] | [DA]4 | [EA][EA] [EA][DE] | %5
 [CE]2 [Ec]2 | [DB][CA] [B,G][DA] | [DB]4 | [DB][B,G] [B,G][B,E] | [CE]2 [CD]2 | %10
 [B,D][B,G] [B,G][DB] | [Fd]4 | [=Fd][Fd] [Ec][DB] | [CA][CE] [EF][EG] | [DG]2 [FA]2 | G4 |] %16
V:2
 x4 | x4 | x4 | x4 | x4 | x4 | x4 | x4 | x4 | x4 | x4 | x4 | x4 | x4 | x4 | G4 |] %16
V:3
 G,G, G,G, | [F,A,]2 [F,A,]2 | [G,B,][E,B,] [A,,A,][A,,G,] | [D,F,]4 | %4
 [C,A,][C,A,] [B,,^G,][B,,G,] | [A,,A,]2 [A,,A,]2 | [D,F,][D,F,] [D,G,][D,F,] | G,4 | G,G, G,G, | %9
 [F,A,]2 [F,A,]2 | G,G, G,G, | [D,A,]4 | [G,B,][G,B,] [G,,G,][G,,G,] | %13
 [C,E,][C,G,] [^C,A,][C,^A,] | [D,B,]2 [D,C]2 | [G,,B,]4 |] %16
V:4
 G,G, G,G, | x4 | x4 | x4 | x4 | x4 | x4 | G,4 | G,G, G,G, | x4 | G,G, G,G, | x4 | x4 | x4 | x4 | %15
 x4 |] %16

